svgs/sharp-light/bridge-circle-check.svg

<svg xmlns="http://www.w3.org/2000/svg" viewBox="0 0 640 512"><!--! Font Awesome Pro 6.6.0 by @fontawesome - https://fontawesome.com License - https://fontawesome.com/license (Commercial License) Copyright 2024 Fonticons, Inc. --><path d="M48 32L32 32l0 32 16 0 64 0 0 64-64 0-16 0 0 32 16 0 64 0 32 0 96 0 32 0 96 0 32 0 96 0 32 0 64 0 16 0 0-32-16 0-64 0 0-64 64 0 16 0 0-32-16 0-64 0-32 0-96 0-32 0-96 0-32 0-96 0-32 0L48 32zM496 64l0 64-96 0 0-64 96 0zM368 64l0 64-96 0 0-64 96 0zM240 64l0 64-96 0 0-64 96 0zM48 240l-16 0 0 32 16 0 16 0c35.3 0 64 28.7 64 64l0 128 0 16 16 0 96 0 16 0 0-16 0-128c0-35.3 28.7-64 64-64c9 0 17.5 1.8 25.2 5.2c5.6-9.3 12.1-18.1 19.3-26.2C351.2 244 336.1 240 320 240c-53 0-96 43-96 96l0 112-64 0 0-112c0-53-43-96-96-96l-16 0zm448 16a112 112 0 1 1 0 224 112 112 0 1 1 0-224zm0 256a144 144 0 1 0 0-288 144 144 0 1 0 0 288zm78.6-176L552 313.4l-11.3 11.3L480 385.4l-28.7-28.7L440 345.4 417.4 368l11.3 11.3 40 40L480 430.6l11.3-11.3 72-72L574.6 336z"/></svg>

<svg xmlns="http://www.w3.org/2000/svg" viewBox="0 0 640 512"><!--! Font Awesome Pro 6.4.2 by @fontawesome - https://fontawesome.com License - https://fontawesome.com/license (Commercial License) Copyright 2023 Fonticons, Inc. --><path d="M48 32H32V64H48h64v64H48 32v32H48h64 32 96 32 96 32 96 32 64 16V128H592 528V64h64 16V32H592 528 496 400 368 272 240 144 112 48zM496 64v64H400V64h96zM368 64v64H272V64h96zM240 64v64H144V64h96zM48 240H32v32H48 64c35.3 0 64 28.7 64 64V464v16h16 96 16V464 336c0-35.3 28.7-64 64-64c9 0 17.5 1.8 25.2 5.2c5.6-9.3 12.1-18.1 19.3-26.2C351.2 244 336.1 240 320 240c-53 0-96 43-96 96V448H160V336c0-53-43-96-96-96H48zm448 16a112 112 0 1 1 0 224 112 112 0 1 1 0-224zm0 256a144 144 0 1 0 0-288 144 144 0 1 0 0 288zm78.6-176L552 313.4l-11.3 11.3L480 385.4l-28.7-28.7L440 345.4 417.4 368l11.3 11.3 40 40L480 430.6l11.3-11.3 72-72L574.6 336z"/></svg>
